X: 26888
T: Minnie Foster's
R: hornpipe
M: 4/4
K: Fmajor
|:AB|cFA<c dFBd|cFA<c feff|gce<g bgeg|(3fef (3afd cAA<B|
cFAc dFB<d|cFA<c feff|gebg e<cBG|F2 F<A F2:|
|:ef|gceg bcfb|acfa c'af2|gaba gfed|c2 c<c' c2 A,B,|
C2 A,C FDFB|d2 FB FBdb|acfa gce<g|f2 f<a f2:|

